X:1
T:All Rights Reserved
Z:All Rights Reserved
%%score ( 1 2 ) { 3 | 4 }
L:1/8
Q:1/4=124
M:2/2
K:F
V:1 treble nm="Church Organ, Right Hand"
V:2 treble 
V:3 treble nm="Church Organ, Left Hand"
V:4 bass 
V:1
 [FA]4 F4 | [Gc]4 G2 A2 | [FB]4 [CB]4 | [CA]4 [DF]2 [EG]2 | [FA]4 [FA]2 [G=B]2 | [Gc]8 | %6
w: V�r~velkommen,~Herrens~�r *||||||
 [Fc]4 [FA]4 | [Fd]4 G2 [FA]2 | [FB]4 B2 c2 | [FA]4 [CF]4 | D4- [DG]2 [FA]2 | [FB]4 A2 G2 | %12
w: ||||||
 F4 [DG]4 |[Q:1/4=62] [^CA]4[Q:1/4=124] [DA]4 | [Ec]4 [Fc]4 | [Fd]2 [Ed]2 [Fc]2 [GB]2 | %16
w: ||||
[Q:1/4=120] [FA]4 [EG]4 |[Q:1/4=93] [CF]8[Q:1/4=124] |] %18
w: ||
V:2
 x8 | z4 E4 | x8 | x8 | x8 | x8 | x8 | x8 | z4 E4 | x8 | F4 z4 | z4 E4 | x8 | x8 | x8 | x8 | x8 | %17
 x8 |] %18
V:3
 C4 C4 | C4 C4 | B,4[K:bass] G,4 | F,4 A,2 C2 | C4[K:treble] D2 D2 | E8 | A,4 C4 | B,4 D2 C2 | %8
 B,4 G,4 | F,4 C4 | B,6[K:treble] C2 | D4 C2 B,2 | A,4[K:bass] D,4 | E,4 F,4 | G,4 A,4 | %15
 B,2 B,2[K:treble] C2 D2 | C4 B,4 | A,8 |] %18
V:4
 F,4 A,4 | E,4 C,4 | D,4 E,4 | z4 D,2 C,2 | F,4 D,2 G,2 | C,8 | F,4 F,4 | B,,4 B,2 A,2 | G,4 C,4 | %9
 D,4 A,,4 | B,,6 A,,2 | G,,4 C,4 | D,4 B,,4 | A,,4 D,4 | C,4 F,4 | B,,2 G,,2 A,,2 B,,2 | C,4 C,4 | %17
 F,8 |] %18

